build/img/icon-tag.svg

<svg width="33" height="33" viewBox="0 0 33 33"  xmlns="http://www.w3.org/2000/svg">
<path d="M10.7945 8.4399C10.6776 8.32298 10.5155 8.25572 10.3502 8.25572C10.1849 8.25572 10.0227 8.32298 9.90583 8.4399C9.78899 8.55682 9.72168 8.719 9.72168 8.88433C9.72168 9.04965 9.78893 9.21183 9.90583 9.32875C10.0227 9.44573 10.1849 9.51293 10.3502 9.51293C10.5155 9.51293 10.6776 9.44567 10.7945 9.32875C10.9114 9.21183 10.9787 9.04965 10.9787 8.88433C10.9787 8.719 10.9114 8.55682 10.7945 8.4399Z" fill="#00B2FF"/>
<path d="M32.6111 3.1753L31.8339 2.39715L32.6108 1.62013C32.8563 1.37466 32.8563 0.976632 32.6108 0.7311C32.3653 0.48563 31.9675 0.48563 31.7219 0.7311L30.9455 1.50761L30.1798 0.740843C30.0619 0.622917 29.9021 0.556536 29.7355 0.556473L19.0977 0.550564C19.0971 0.550564 19.0965 0.550564 19.0959 0.550564C18.2559 0.550564 17.4662 0.87769 16.8722 1.47178L11.5638 6.78098C11.3184 7.02645 11.3184 7.42448 11.5638 7.67001C11.8093 7.91548 12.2071 7.91548 12.4527 7.67001L17.7611 2.36082C18.1177 2.00415 18.5917 1.80784 19.0959 1.80784C19.0963 1.80784 19.0967 1.80784 19.097 1.80784L29.4744 1.81362L30.0568 2.39671L27.7247 4.72909C26.7358 4.13669 25.4321 4.26587 24.5809 5.11712C24.0946 5.60354 23.8268 6.25018 23.8268 6.938C23.8268 7.62582 24.0946 8.27247 24.5809 8.75888C25.0828 9.26088 25.7422 9.51189 26.4015 9.51189C27.0608 9.51189 27.7201 9.26088 28.2221 8.75888C29.072 7.90882 29.202 6.60748 28.6128 5.61894L30.9452 3.28625L31.5378 3.87972L31.5321 14.2446C31.5317 14.7485 31.3354 15.2223 30.9791 15.5786L15.642 30.9179C15.2855 31.2745 14.8114 31.4709 14.3072 31.4709C13.803 31.4709 13.3289 31.2745 12.9724 30.9179L2.42522 20.3691C2.0686 20.0125 1.87225 19.5383 1.87225 19.034C1.87225 18.5298 2.0686 18.0556 2.42522 17.699L9.20017 10.923C9.4456 10.6776 9.4456 10.2795 9.20017 10.034C8.95468 9.78853 8.55683 9.78853 8.31127 10.034L1.53632 16.81C0.942374 17.404 0.615234 18.1939 0.615234 19.034C0.615234 19.8742 0.942374 20.6641 1.53632 21.2581L12.0835 31.8069C12.6966 32.4201 13.5018 32.7267 14.3072 32.7267C15.1126 32.7267 15.9178 32.4201 16.5309 31.8069L31.8679 16.4675C32.4614 15.8739 32.7885 15.0847 32.789 14.2451L32.7949 3.61985C32.795 3.45315 32.7289 3.29323 32.6111 3.1753ZM27.3332 7.86978C27.0843 8.11871 26.7534 8.25581 26.4015 8.25581C26.0495 8.25581 25.7187 8.11871 25.4698 7.86978C24.956 7.35596 24.956 6.51985 25.4698 6.00603C25.7267 5.74906 26.064 5.62064 26.4015 5.62064C26.5286 5.62064 26.6556 5.63893 26.7785 5.67539L26.053 6.40092C25.8076 6.64639 25.8076 7.04442 26.053 7.28996C26.1758 7.41272 26.3366 7.47408 26.4974 7.47408C26.6583 7.47408 26.8191 7.41272 26.9419 7.28996L27.6653 6.56643C27.7959 7.01394 27.6854 7.51757 27.3332 7.86978Z"/>
<path d="M27.4632 13.2024L20.1386 5.8766C19.1683 4.90616 17.5895 4.90629 16.6193 5.8766L5.02826 17.4694C4.5582 17.9395 4.29932 18.5645 4.29932 19.2294C4.29932 19.8942 4.55814 20.5192 5.0282 20.9893L12.3528 28.315C12.8229 28.7851 13.4478 29.044 14.1125 29.044C14.7772 29.044 15.4022 28.7851 15.8721 28.315L27.4632 16.7222C27.9333 16.252 28.1921 15.6271 28.1921 14.9623C28.1921 14.2974 27.9333 13.6724 27.4632 13.2024ZM26.5743 15.8331L14.9833 27.4261C14.7507 27.6587 14.4414 27.7868 14.1125 27.7868C13.7837 27.7868 13.4744 27.6587 13.2418 27.426L5.9171 20.1003C5.68449 19.8677 5.5564 19.5584 5.5564 19.2294C5.55634 18.9004 5.68449 18.5911 5.9171 18.3585L17.5082 6.76564C17.7483 6.52551 18.0636 6.40545 18.379 6.40545C18.6943 6.40545 19.0097 6.52557 19.2497 6.76564L26.5743 14.0913C26.8069 14.324 26.935 14.6332 26.935 14.9623C26.935 15.2912 26.8069 15.6005 26.5743 15.8331Z"/>
<path d="M21.1098 13.1219C21.3553 12.8764 21.3553 12.4784 21.1098 12.2328C20.8643 11.9874 20.4665 11.9874 20.2209 12.2328L19.859 12.5948C18.8927 11.9978 17.6528 12.078 16.869 12.8618C16.412 13.3188 16.1782 13.9395 16.2106 14.6094C16.242 15.2564 16.5205 15.874 16.9949 16.3484C16.9949 16.3484 16.995 16.3484 16.995 16.3485C17.5005 16.8543 17.5569 17.6207 17.1208 18.057C16.6844 18.4933 15.918 18.4368 15.4123 17.9311C14.9066 17.4253 14.8501 16.6588 15.2864 16.2224C15.5318 15.9769 15.5318 15.5789 15.2864 15.3334C15.0409 15.0879 14.643 15.0879 14.3975 15.3334C13.6137 16.1172 13.5337 17.3573 14.1306 18.3239L13.7012 18.7533C13.4557 18.9988 13.4557 19.3968 13.7012 19.6423C13.8242 19.7652 13.9851 19.8266 14.1459 19.8266C14.3068 19.8266 14.4676 19.7652 14.5903 19.6424L15.02 19.2127C15.4422 19.4735 15.9165 19.6057 16.3823 19.6057C16.9825 19.6056 17.5684 19.3873 18.0097 18.946C18.9359 18.0196 18.8796 16.456 17.8843 15.46C17.8841 15.4598 17.884 15.4596 17.8838 15.4594C17.6308 15.2063 17.4825 14.8829 17.4662 14.5486C17.4512 14.2373 17.5547 13.954 17.7579 13.7508C18.1941 13.3145 18.9604 13.3709 19.4662 13.8765C19.4662 13.8766 19.4662 13.8766 19.4663 13.8767C19.4664 13.8768 19.4664 13.8768 19.4664 13.8768C19.972 14.3826 20.0284 15.149 19.5921 15.5853C19.3467 15.8308 19.3467 16.2288 19.5921 16.4743C19.7149 16.5971 19.8757 16.6585 20.0365 16.6585C20.1974 16.6585 20.3582 16.5971 20.481 16.4743C21.2647 15.6904 21.3448 14.4503 20.7479 13.4838L21.1098 13.1219Z"/>
<path d="M14.7493 23.5431L11.5212 20.3145C11.2758 20.0692 10.8779 20.0691 10.6323 20.3145C10.3869 20.5599 10.3869 20.958 10.6323 21.2035L13.8605 24.4321C13.9832 24.5548 14.1441 24.6163 14.3049 24.6163C14.4657 24.6163 14.6266 24.5548 14.7493 24.4321C14.9947 24.1867 14.9947 23.7886 14.7493 23.5431Z"/>
<path d="M9.79888 18.5923C9.68204 18.4754 9.52045 18.4081 9.35458 18.4081C9.18929 18.4081 9.02776 18.4754 8.91023 18.5923C8.79333 18.7092 8.72607 18.8714 8.72607 19.0373C8.72607 19.2027 8.79326 19.3648 8.91023 19.4818C9.02713 19.5987 9.18929 19.6659 9.35458 19.6659C9.52051 19.6659 9.68204 19.5987 9.79888 19.4818C9.91641 19.3642 9.98366 19.2027 9.98366 19.0373C9.98366 18.8714 9.91641 18.7098 9.79888 18.5923Z"/>
</svg>

<svg width="33" height="33" xmlns="http://www.w3.org/2000/svg"><path d="M10.794 8.44a.633.633 0 00-.444-.184.633.633 0 00-.444.184.634.634 0 00-.184.444c0 .166.067.328.184.445a.633.633 0 00.444.184.633.633 0 00.629-.629.633.633 0 00-.184-.444z" fill="#00B2FF"/><path d="M32.611 3.175l-.777-.778.777-.777a.629.629 0 00-.89-.889l-.776.777L30.18.74a.629.629 0 00-.445-.185L19.098.551h-.002c-.84 0-1.63.327-2.224.92l-5.308 5.31a.629.629 0 00.889.889l5.308-5.31c.357-.356.83-.552 1.335-.552h.001l10.377.006.583.583-2.332 2.332a2.579 2.579 0 00-3.144.388 2.559 2.559 0 00-.754 1.821c0 .688.268 1.334.754 1.82a2.567 2.567 0 001.82.754c.66 0 1.32-.251 1.821-.753.85-.85.98-2.152.39-3.14l2.333-2.333.593.594-.006 10.365c0 .504-.197.977-.553 1.334L15.642 30.918c-.356.357-.83.553-1.335.553a1.88 1.88 0 01-1.335-.553L2.425 20.369a1.876 1.876 0 01-.553-1.335c0-.504.197-.978.553-1.335L9.2 10.923a.629.629 0 00-.889-.889L1.536 16.81a3.125 3.125 0 00-.92 2.224c0 .84.326 1.63.92 2.224l10.548 10.549c.613.613 1.418.92 2.223.92.806 0 1.61-.307 2.224-.92l15.337-15.34c.593-.593.92-1.382.921-2.222l.006-10.625a.628.628 0 00-.184-.445zM27.333 7.87c-.249.249-.58.386-.931.386a1.32 1.32 0 010-2.635c.127 0 .254.018.377.054l-.726.726a.629.629 0 00.889.889l.723-.724c.13.448.02.952-.332 1.304z"/><path d="M27.463 13.202L20.14 5.877c-.97-.97-2.55-.97-3.52 0L5.03 17.469a2.473 2.473 0 00-.73 1.76c0 .665.26 1.29.73 1.76l7.324 7.326c.47.47 1.095.729 1.76.729.664 0 1.29-.259 1.76-.729l11.59-11.593c.47-.47.73-1.095.73-1.76s-.26-1.29-.73-1.76zm-.889 2.631l-11.59 11.593c-.233.233-.543.36-.871.36-.33 0-.639-.127-.871-.36L5.917 20.1a1.224 1.224 0 01-.36-.87c0-.33.127-.639.36-.872L17.508 6.766a1.229 1.229 0 011.741 0l7.325 7.325c.233.233.361.542.361.871 0 .33-.128.639-.36.871z"/><path d="M21.11 13.122a.629.629 0 00-.89-.89l-.361.363c-.966-.597-2.206-.517-2.99.267a2.28 2.28 0 00-.658 1.747 2.644 2.644 0 00.784 1.74c.505.505.562 1.272.126 1.708-.437.436-1.203.38-1.709-.126-.505-.506-.562-1.272-.126-1.709a.629.629 0 00-.888-.889c-.784.784-.864 2.024-.267 2.99l-.43.43a.629.629 0 10.89.89l.429-.43a2.6 2.6 0 001.362.393c.6 0 1.186-.219 1.628-.66.926-.926.87-2.49-.126-3.486a1.39 1.39 0 01-.418-.911 1.039 1.039 0 01.292-.798c.436-.436 1.202-.38 1.708.126s.562 1.272.126 1.708a.629.629 0 00.889.89c.784-.785.864-2.025.267-2.991l.362-.362zm-6.36 10.421l-3.229-3.229a.629.629 0 00-.889.89l3.229 3.228a.627.627 0 00.888 0 .629.629 0 000-.889zm-4.951-4.951a.632.632 0 00-.889 0 .633.633 0 000 .89.632.632 0 001.073-.445.633.633 0 00-.184-.445z"/></svg>
